static/assets/items/sand.svg

<?xml version="1.0" encoding="UTF-8" standalone="no"?>
<!-- Created with Inkscape (http://www.inkscape.org/) -->

<svg
   xmlns:dc="http://purl.org/dc/elements/1.1/"
   xmlns:cc="http://creativecommons.org/ns#"
   xmlns:rdf="http://www.w3.org/1999/02/22-rdf-syntax-ns#"
   xmlns:svg="http://www.w3.org/2000/svg"
   xmlns="http://www.w3.org/2000/svg"
   xmlns:sodipodi="http://sodipodi.sourceforge.net/DTD/sodipodi-0.dtd"
   xmlns:inkscape="http://www.inkscape.org/namespaces/inkscape"
   version="1.1"
   id="svg8645"
   width="32"
   height="32"
   viewBox="0 0 32 32"
   sodipodi:docname="sand.svg"
   inkscape:version="0.92.5 (2060ec1f9f, 2020-04-08)">
  <metadata
     id="metadata8651">
    <rdf:RDF>
      <cc:Work
         rdf:about="">
        <dc:format>image/svg+xml</dc:format>
        <dc:type
           rdf:resource="http://purl.org/dc/dcmitype/StillImage" />
        <dc:title></dc:title>
      </cc:Work>
    </rdf:RDF>
  </metadata>
  <defs
     id="defs8649" />
  <sodipodi:namedview
     pagecolor="#ffffff"
     bordercolor="#666666"
     borderopacity="1"
     objecttolerance="10"
     gridtolerance="10"
     guidetolerance="10"
     inkscape:pageopacity="0"
     inkscape:pageshadow="2"
     inkscape:window-width="1366"
     inkscape:window-height="705"
     id="namedview8647"
     showgrid="false"
     inkscape:zoom="7.375"
     inkscape:cx="16"
     inkscape:cy="16"
     inkscape:window-x="-8"
     inkscape:window-y="-8"
     inkscape:window-maximized="1"
     inkscape:current-layer="svg8645" />
  <g
     id="g9206">
    <path
       style="fill:#000000;fill-opacity:0"
       d="M 0,0.5 V 0 H 0.5 1 1.5 2 2.5 3 3.5 4 4.5 5 5.5 6 6.5 7 7.5 8 8.5 9 9.5 10 10.5 11 11.5 12 12.5 13 13.5 14 14.5 15 15.5 16 16.5 17 17.5 18 18.5 19 19.5 20 20.5 21 21.5 22 22.5 23 23.5 24 24.5 25 25.5 26 26.5 27 27.5 28 28.5 29 29.5 30 30.5 31 31.5 32 V 0.5 1 1.5 2 2.5 3 3.5 4 4.5 5 5.5 6 6.5 7 7.5 8 8.5 9 9.5 10 10.5 11 11.5 12 12.5 13 13.5 14 14.5 15 15.5 16 16.5 17 17.5 18 18.5 19 19.5 20 20.5 21 21.5 22 22.5 23 23.5 24 24.5 25 25.5 26 26.5 27 27.5 28 28.5 29 29.5 30 30.5 31 31.5 32 H 31.5 31 30.5 30 29.5 29 28.5 28 27.5 27 26.5 26 25.5 25 24.5 24 23.5 23 22.5 22 21.5 21 20.5 20 19.5 19 18.5 18 17.5 17 16.5 16 15.5 15 14.5 14 13.5 13 12.5 12 11.5 11 10.5 10 9.5 9 8.5 8 7.5 7 6.5 6 5.5 5 4.5 4 3.5 3 2.5 2 1.5 1 0.5 0 V 31.5 31 30.5 30 29.5 29 28.5 28 27.5 27 26.5 26 25.5 25 24.5 24 23.5 23 22.5 22 21.5 21 20.5 20 19.5 19 18.5 18 17.5 17 16.5 16 15.5 15 14.5 14 13.5 13 12.5 12 11.5 11 10.5 10 9.5 9 8.5 8 7.5 7 6.5 6 5.5 5 4.5 4 3.5 3 2.5 2 1.5 1 0.5 M 21.5,28 Q 22,28 22.375,27.875 22.75,27.75 23,27.5 23.25,27.25 23.5,27 23.75,26.75 24,26.5 24.25,26.25 24.5,26 24.75,25.75 25,25.5 25.25,25.25 25.5,25 25.75,24.75 26,24.5 26.25,24.25 26.5,24 26.75,23.75 27,23.5 27.25,23.25 27.5,23 27.75,22.75 27.875,22.375 28,22 28,21.5 q 0,-0.5 0,-1 0,-0.5 0,-1 0,-0.5 0,-1 0,-0.5 0,-1 0,-0.5 0,-1 0,-0.5 0,-1 0,-0.5 0,-1 0,-0.5 0,-1 Q 28,13 27.875,12.625 27.75,12.25 27.5,12 27.25,11.75 27,11.5 26.75,11.25 26.5,11 26.25,10.75 26,10.5 25.75,10.25 25.5,10 25.25,9.75 25,9.5 24.75,9.25 24.5,9 24.25,8.75 24,8.5 23.75,8.25 23.5,8 23.25,7.75 23,7.5 22.75,7.25 22.5,7 22.25,6.75 22,6.5 21.75,6.25 21.5,6 21.25,5.75 21,5.5 20.75,5.25 20.5,5 20.25,4.75 20,4.5 19.75,4.25 19.375,4.125 19,4 18.5,4 18,4 17.5,4 17,4 16.5,4 16,4 15.5,4 15,4 14.5,4 H 14 13.5 Q 13,4 12.625,4.125 12.25,4.25 12,4.5 11.75,4.75 11.5,5 11.25,5.25 11,5.5 10.75,5.75 10.5,6 10.25,6.25 10,6.5 9.75,6.75 9.5,7 9.25,7.25 9,7.5 8.75,7.75 8.5,8 8.25,8.25 8,8.5 7.75,8.75 7.5,9 7.25,9.25 7,9.5 6.75,9.75 6.5,10 6.25,10.25 6,10.5 5.75,10.75 5.5,11 5.25,11.25 5,11.5 4.75,11.75 4.5,12 4.25,12.25 4.125,12.625 4,13 4,13.5 q 0,0.5 0,1 0,0.5 0,1 0,0.5 0,1 0,0.5 0,1 0,0.5 0,1 0,0.5 0,1 0,0.5 0,1 0,0.5 0,1 Q 4,22 4.125,22.375 4.25,22.75 4.5,23 4.75,23.25 5,23.5 5.25,23.75 5.5,24 5.75,24.25 6,24.5 6.25,24.75 6.5,25 6.75,25.25 7,25.5 7.25,25.75 7.5,26 7.75,26.25 8,26.5 8.25,26.75 8.5,27 8.75,27.25 9,27.5 9.25,27.75 9.625,27.875 10,28 10.5,28 q 0.5,0 1,0 0.5,0 1,0 0.5,0 1,0 0.5,0 1,0 0.5,0 1,0 h 0.5 0.5 q 0.5,0 1,0 0.5,0 1,0 0.5,0 1,0 0.5,0 1,0 0.5,0 1,0"
       id="path9198"
       inkscape:connector-curvature="0" />
    <path
       style="fill:#d3ae8d;fill-opacity:1"
       d="M 12,4.5 Q 12.25,4.25 12.625,4.125 13,4 13.5,4 H 14 v 0.5 q 0,0.5 0,1 0,0.5 0,1 0,0.5 0,1 0,0.5 0,1 0,0.5 0,1 Q 14,10 13.5,10 13,10 13,10.5 13,11 12.5,11 12,11 12,11.5 12,12 11.5,12 11,12 11,12.5 11,13 10.5,13 10,13 10,13.5 10,14 9.5,14 9,14 9,14.5 9,15 8.5,15 8,15 8,15.5 q 0,0.5 0,1 0,0.5 0,1 0,0.5 0,1 0,0.5 0,1 Q 8,20 8.5,20 9,20 9,20.5 9,21 9.5,21 10,21 10,21.5 10,22 10.5,22 11,22 11,22.5 11,23 11.5,23 12,23 12,23.5 12,24 12.5,24 13,24 13,24.5 13,25 13.5,25 14,25 14,25.5 14,26 14.5,26 15,26 15,26.5 15,27 15.5,27 16,27 16,27.5 V 28 h -0.5 q -0.5,0 -1,0 -0.5,0 -1,0 -0.5,0 -1,0 -0.5,0 -1,0 -0.5,0 -1,0 Q 10,28 9.625,27.875 9.25,27.75 9,27.5 8.75,27.25 8.5,27 8.25,26.75 8,26.5 7.75,26.25 7.5,26 7.25,25.75 7,25.5 6.75,25.25 6.5,25 6.25,24.75 6,24.5 5.75,24.25 5.5,24 5.25,23.75 5,23.5 4.75,23.25 4.5,23 4.25,22.75 4.125,22.375 4,22 4,21.5 4,21 4,20.5 4,20 4,19.5 4,19 4,18.5 4,18 4,17.5 4,17 4,16.5 4,16 4,15.5 4,15 4,14.5 4,14 4,13.5 4,13 4.125,12.625 4.25,12.25 4.5,12 4.75,11.75 5,11.5 5.25,11.25 5.5,11 5.75,10.75 6,10.5 6.25,10.25 6.5,10 6.75,9.75 7,9.5 7.25,9.25 7.5,9 7.75,8.75 8,8.5 8.25,8.25 8.5,8 8.75,7.75 9,7.5 9.25,7.25 9.5,7 9.75,6.75 10,6.5 10.25,6.25 10.5,6 10.75,5.75 11,5.5 11.25,5.25 11.5,5 11.75,4.75 12,4.5"
       id="path9200"
       inkscape:connector-curvature="0" />
    <path
       style="fill:#f7cba4;fill-opacity:1"
       d="M 14,4.5 V 4 h 0.5 q 0.5,0 1,0 0.5,0 1,0 0.5,0 1,0 0.5,0 1,0 Q 19,4 19.375,4.125 19.75,4.25 20,4.5 q 0.25,0.25 0.5,0.5 0.25,0.25 0.5,0.5 0.25,0.25 0.5,0.5 0.25,0.25 0.5,0.5 0.25,0.25 0.5,0.5 0.25,0.25 0.5,0.5 0.25,0.25 0.5,0.5 0.25,0.25 0.5,0.5 0.25,0.25 0.5,0.5 0.25,0.25 0.5,0.5 0.25,0.25 0.5,0.5 0.25,0.25 0.5,0.5 0.25,0.25 0.5,0.5 0.25,0.25 0.5,0.5 0.25,0.25 0.5,0.5 0.25,0.25 0.375,0.625 Q 28,13 28,13.5 q 0,0.5 0,1 0,0.5 0,1 0,0.5 0,1 0,0.5 0,1 0,0.5 0,1 0,0.5 0,1 0,0.5 0,1 0,0.5 0,1 0,0.5 -0.125,0.875 Q 27.75,22.75 27.5,23 27.25,23.25 27,23.5 26.75,23.75 26.5,24 26.25,24.25 26,24.5 25.75,24.75 25.5,25 25.25,25.25 25,25.5 24.75,25.75 24.5,26 24.25,26.25 24,26.5 23.75,26.75 23.5,27 23.25,27.25 23,27.5 22.75,27.75 22.375,27.875 22,28 21.5,28 q -0.5,0 -1,0 -0.5,0 -1,0 -0.5,0 -1,0 -0.5,0 -1,0 -0.5,0 -1,0 H 16 V 27.5 Q 16,27 15.5,27 15,27 15,26.5 15,26 14.5,26 14,26 14,25.5 14,25 13.5,25 13,25 13,24.5 13,24 12.5,24 12,24 12,23.5 12,23 11.5,23 11,23 11,22.5 11,22 10.5,22 10,22 10,21.5 10,21 9.5,21 9,21 9,20.5 9,20 8.5,20 8,20 8,19.5 8,19 8,18.5 8,18 8,17.5 8,17 8,16.5 8,16 8,15.5 8,15 8.5,15 9,15 9,14.5 9,14 9.5,14 10,14 10,13.5 10,13 10.5,13 11,13 11,12.5 11,12 11.5,12 12,12 12,11.5 12,11 12.5,11 13,11 13,10.5 13,10 13.5,10 14,10 14,9.5 14,9 14,8.5 14,8 14,7.5 14,7 14,6.5 14,6 14,5.5 14,5 14,4.5 M 18.5,24 Q 19,24 19,23.5 19,23 19.5,23 20,23 20,22.5 20,22 20,21.5 20,21 19.5,21 19,21 19,20.5 19,20 18.5,20 18,20 18,19.5 18,19 17.5,19 17,19 17,18.5 17,18 17,17.5 17,17 17.5,17 18,17 18,16.5 18,16 18.5,16 19,16 19,15.5 19,15 19.5,15 20,15 20,14.5 20,14 20,13.5 20,13 19.5,13 19,13 19,12.5 19,12 18.5,12 18,12 17.5,12 17,12 17,12.5 17,13 16.5,13 16,13 16,13.5 16,14 15.5,14 15,14 15,14.5 15,15 14.5,15 14,15 14,15.5 14,16 13.5,16 13,16 13,16.5 13,17 12.5,17 12,17 12,17.5 q 0,0.5 0,1 0,0.5 0.5,0.5 0.5,0 0.5,0.5 0,0.5 0.5,0.5 0.5,0 0.5,0.5 0,0.5 0.5,0.5 0.5,0 0.5,0.5 0,0.5 0.5,0.5 0.5,0 0.5,0.5 0,0.5 0.5,0.5 0.5,0 0.5,0.5 0,0.5 0.5,0.5 0.5,0 1,0"
       id="path9202"
       inkscape:connector-curvature="0" />
    <path
       style="fill:#d3ae8d;fill-opacity:1"
       d="m 17,12.5 q 0,-0.5 0.5,-0.5 0.5,0 1,0 0.5,0 0.5,0.5 0,0.5 0.5,0.5 0.5,0 0.5,0.5 0,0.5 0,1 Q 20,15 19.5,15 19,15 19,15.5 19,16 18.5,16 18,16 18,16.5 18,17 17.5,17 17,17 17,17.5 q 0,0.5 0,1 0,0.5 0.5,0.5 0.5,0 0.5,0.5 0,0.5 0.5,0.5 0.5,0 0.5,0.5 0,0.5 0.5,0.5 0.5,0 0.5,0.5 0,0.5 0,1 Q 20,23 19.5,23 19,23 19,23.5 19,24 18.5,24 18,24 17.5,24 17,24 17,23.5 17,23 16.5,23 16,23 16,22.5 16,22 15.5,22 15,22 15,21.5 15,21 14.5,21 14,21 14,20.5 14,20 13.5,20 13,20 13,19.5 13,19 12.5,19 12,19 12,18.5 12,18 12,17.5 12,17 12.5,17 13,17 13,16.5 13,16 13.5,16 14,16 14,15.5 14,15 14.5,15 15,15 15,14.5 15,14 15.5,14 16,14 16,13.5 16,13 16.5,13 17,13 17,12.5"
       id="path9204"
       inkscape:connector-curvature="0" />
  </g>
</svg>

<svg xmlns="http://www.w3.org/2000/svg" viewBox="0 0 32 32"><path d="M0 .5V0h32v32H0V.5M21.5 28q.5 0 .875-.125T23 27.5l.5-.5.5-.5.5-.5.5-.5.5-.5.5-.5.5-.5.5-.5.5-.5q.25-.25.375-.625T28 21.5v-1-1-1-1-1-1-1-1q0-.5-.125-.875T27.5 12l-.5-.5-.5-.5-.5-.5-.5-.5-.5-.5-.5-.5-.5-.5-.5-.5-.5-.5-.5-.5-.5-.5-.5-.5-.5-.5-.5-.5-.5-.5q-.25-.25-.625-.375T18.5 4h-5q-.5 0-.875.125T12 4.5l-.5.5-.5.5-.5.5-.5.5-.5.5-.5.5-.5.5-.5.5-.5.5-.5.5-.5.5-.5.5-.5.5-.5.5-.5.5q-.25.25-.375.625T4 13.5v8q0 .5.125.875T4.5 23l.5.5.5.5.5.5.5.5.5.5.5.5.5.5.5.5.5.5q.25.25.625.375T10.5 28h11" fill="none"/><path d="M12 4.5q.25-.25.625-.375T13.5 4h.5v5.5q0 .5-.5.5t-.5.5-.5.5-.5.5-.5.5-.5.5-.5.5-.5.5-.5.5-.5.5-.5.5-.5.5v4q0 .5.5.5t.5.5.5.5.5.5.5.5.5.5.5.5.5.5.5.5.5.5.5.5.5.5.5.5.5.5.5.5.5.5v.5h-5.5q-.5 0-.875-.125T9 27.5l-.5-.5-.5-.5-.5-.5-.5-.5-.5-.5-.5-.5-.5-.5-.5-.5-.5-.5q-.25-.25-.375-.625T4 21.5v-1-1-1-1-1-1-1-1q0-.5.125-.875T4.5 12l.5-.5.5-.5.5-.5.5-.5.5-.5.5-.5.5-.5.5-.5.5-.5.5-.5.5-.5.5-.5.5-.5.5-.5.5-.5" fill="#d3ae8d"/><path d="M14 4.5V4h4.5q.5 0 .875.125T20 4.5l.5.5.5.5.5.5.5.5.5.5.5.5.5.5.5.5.5.5.5.5.5.5.5.5.5.5.5.5.5.5q.25.25.375.625T28 13.5v8q0 .5-.125.875T27.5 23l-.5.5-.5.5-.5.5-.5.5-.5.5-.5.5-.5.5-.5.5-.5.5q-.25.25-.625.375T21.5 28H16v-.5q0-.5-.5-.5t-.5-.5-.5-.5-.5-.5-.5-.5-.5-.5-.5-.5-.5-.5-.5-.5-.5-.5-.5-.5-.5-.5-.5-.5-.5-.5-.5-.5-.5-.5v-1-1-1-1q0-.5.5-.5t.5-.5.5-.5.5-.5.5-.5.5-.5.5-.5.5-.5.5-.5.5-.5.5-.5.5-.5v-1-1-1-1-1M18.5 24q.5 0 .5-.5t.5-.5.5-.5v-1q0-.5-.5-.5t-.5-.5-.5-.5-.5-.5-.5-.5-.5-.5v-1q0-.5.5-.5t.5-.5.5-.5.5-.5.5-.5.5-.5v-1q0-.5-.5-.5t-.5-.5-.5-.5h-1q-.5 0-.5.5t-.5.5-.5.5-.5.5-.5.5-.5.5-.5.5-.5.5-.5.5-.5.5-.5.5v1q0 .5.5.5t.5.5.5.5.5.5.5.5.5.5.5.5.5.5.5.5.5.5.5.5h1" fill="#f7cba4"/><path d="M17 12.5q0-.5.5-.5h1q.5 0 .5.5t.5.5.5.5v1q0 .5-.5.5t-.5.5-.5.5-.5.5-.5.5-.5.5v1q0 .5.5.5t.5.5.5.5.5.5.5.5.5.5v1q0 .5-.5.5t-.5.5-.5.5h-1q-.5 0-.5-.5t-.5-.5-.5-.5-.5-.5-.5-.5-.5-.5-.5-.5-.5-.5-.5-.5-.5-.5-.5-.5v-1q0-.5.5-.5t.5-.5.5-.5.5-.5.5-.5.5-.5.5-.5.5-.5.5-.5.5-.5" fill="#d3ae8d"/></svg>
